src/components/Result/failed.svg

<?xml version="1.0" encoding="UTF-8"?>
<svg width="147px" height="147px" viewBox="0 0 147 147" version="1.1" xmlns="http://www.w3.org/2000/svg" xmlns:xlink="http://www.w3.org/1999/xlink">
    <title>x@1x</title>
    <g id="testest" stroke="none" stroke-width="1" fill="none" fill-rule="evenodd">
        <g id="Safari" transform="translate(-114.000000, -119.000000)" fill-rule="nonzero">
            <g id="x" transform="translate(114.000000, 119.000000)">
                <g id="noun-seal-4266670" fill="#D10000">
                    <path d="M143.403058,50.7869569 C142.113757,46.8185669 139.320721,43.6343446 135.621497,41.8479859 C136.350037,37.805127 135.415137,33.6734436 132.963043,30.2981141 C130.510053,26.9227845 126.870044,24.756006 122.800269,24.1997315 C122.243994,20.129956 120.077216,16.4899475 116.701886,14.0369569 C113.326556,11.5839662 109.192181,10.6490662 105.152014,11.3785036 C103.365656,7.67927871 100.181433,4.88624288 96.2130433,3.59694227 C92.2437563,2.30674458 88.0259401,2.69254773 84.4065674,4.63771366 C81.5650819,1.67241202 77.6729553,0 73.5,0 C69.3270447,0 65.4349181,1.67241202 62.5934326,4.63771366 C58.9740599,2.69434205 54.7553466,2.3067444 50.7869567,3.59694227 C46.8185667,4.88624288 43.6343444,7.67927871 41.8479857,11.3785036 C37.8042296,10.6499635 33.6725462,11.5857607 30.298114,14.0369569 C26.9227843,16.4899475 24.7560058,20.1299562 24.1997313,24.1997315 C20.1299558,24.756006 16.4899473,26.9227845 14.0369567,30.2981141 C11.5848631,33.6734438 10.6499633,37.805127 11.3785034,41.8479859 C7.67927853,43.6343446 4.8862427,46.8185669 3.59694208,50.7869569 C2.30764146,54.7553468 2.69523912,58.9740601 4.63771347,62.5934328 C1.67241202,65.4349181 0,69.3270447 0,73.5 C0,77.6729553 1.67241202,81.5650819 4.63771366,84.4065674 C2.6952393,88.0259401 2.30764165,92.2446534 3.59694227,96.2130433 C4.88624288,100.181433 7.67927871,103.365656 11.3785036,105.152014 C10.6499635,109.194873 11.5848635,113.326557 14.0369569,116.701886 C16.4899475,120.077216 20.1299562,122.243994 24.1997315,122.800269 C24.756006,126.870044 26.9227845,130.510053 30.2981141,132.963043 C33.6725465,135.416034 37.8078188,136.349139 41.8479859,135.621497 C43.6343446,139.320721 46.8185669,142.113757 50.7869569,143.403058 C54.7553468,144.690564 58.9731629,144.304761 62.5934328,142.362287 C65.4349181,145.327588 69.3270447,147 73.5,147 C77.6729553,147 81.5650819,145.327588 84.4065674,142.362286 C88.0259401,144.303863 92.2428589,144.691461 96.2130433,143.403058 C100.181433,142.113757 103.365656,139.320721 105.152014,135.621496 C109.19577,136.351831 113.325659,135.413342 116.701886,132.963043 C120.077216,130.510052 122.243994,126.870044 122.800269,122.800269 C126.870044,122.243994 130.510053,120.077216 132.963043,116.701886 C135.415137,113.326556 136.350037,109.194873 135.621497,105.152014 C139.320721,103.365655 142.113757,100.181433 143.403058,96.2130431 C144.692359,92.2446532 144.304761,88.0259399 142.362287,84.4065672 C145.327588,81.5650819 147,77.6729553 147,73.5 C147,69.3270447 145.327588,65.4349181 142.362286,62.5934326 C144.304761,58.9740601 144.692358,54.7553466 143.403058,50.7869569 Z" id="Shape"></path>
                </g>
                <g id="noun-x-2939490" transform="translate(37.000000, 38.000000)" fill="#FFFFFF">
                    <path d="M70.5939672,1.40573789 C68.7191975,-0.468579296 65.6800751,-0.468579296 63.8053054,1.40573789 L35.9979182,29.2131331 L8.19053103,1.40573789 C6.31523038,-0.465024427 3.27901179,-0.463185247 1.40597893,1.40984761 C-0.46705392,3.28288046 -0.468893099,6.31909905 1.40186921,8.1943997 L29.2092644,36.0017869 L1.40186921,63.8091741 C-0.468893099,65.6844747 -0.46705392,68.7206933 1.40597893,70.5937262 C3.27901179,72.466759 6.31523038,72.4685982 8.19053103,70.5978359 L35.9979182,42.7904407 L63.8053054,70.5978359 C65.6806061,72.4685982 68.7168247,72.466759 70.5898575,70.5937262 C72.4628904,68.7206933 72.4647295,65.6844747 70.5939672,63.8091741 L42.786572,36.0017869 L70.5939672,8.1943997 C71.4942322,7.2941844 72,6.07320062 72,4.80006879 C72,3.52693697 71.4942322,2.30595318 70.5939672,1.40573789 L70.5939672,1.40573789 Z" id="Path"></path>
                </g>
            </g>
        </g>
    </g>
</svg>

<svg width="147" height="147" xmlns="http://www.w3.org/2000/svg"><g fill="none"><path d="M143.403 50.787c-1.29-3.968-4.082-7.153-7.782-8.939.729-4.043-.206-8.175-2.658-11.55-2.453-3.375-6.093-5.542-10.163-6.098-.556-4.07-2.723-7.71-6.098-10.163-3.375-2.453-7.51-3.388-11.55-2.658-1.786-3.7-4.97-6.493-8.939-7.782-3.97-1.29-8.187-.904-11.806 1.04C81.565 1.673 77.673 0 73.5 0s-8.065 1.672-10.907 4.638c-3.619-1.944-7.838-2.331-11.806-1.041-3.968 1.29-7.153 4.082-8.939 7.782-4.044-.729-8.175.207-11.55 2.658C26.923 16.49 24.756 20.13 24.2 24.2c-4.07.556-7.71 2.723-10.163 6.098-2.452 3.375-3.387 7.507-2.658 11.55-3.7 1.786-6.493 4.97-7.782 8.939-1.29 3.968-.902 8.187 1.04 11.806C1.673 65.435 0 69.327 0 73.5s1.672 8.065 4.638 10.907c-1.943 3.619-2.33 7.838-1.041 11.806 1.29 3.968 4.082 7.153 7.782 8.939-.729 4.043.206 8.175 2.658 11.55 2.453 3.375 6.093 5.542 10.163 6.098.556 4.07 2.723 7.71 6.098 10.163a15.02 15.02 0 0011.55 2.658c1.786 3.7 4.97 6.493 8.939 7.782 3.968 1.288 8.186.902 11.806-1.04C65.435 145.327 69.327 147 73.5 147s8.065-1.672 10.907-4.638c3.619 1.942 7.836 2.33 11.806 1.041 3.968-1.29 7.153-4.082 8.939-7.782 4.044.73 8.174-.208 11.55-2.658 3.375-2.453 5.542-6.093 6.098-10.163 4.07-.556 7.71-2.723 10.163-6.098 2.452-3.375 3.387-7.507 2.658-11.55 3.7-1.786 6.493-4.97 7.782-8.939 1.29-3.968.902-8.187-1.04-11.806C145.327 81.565 147 77.673 147 73.5s-1.672-8.065-4.638-10.907c1.943-3.619 2.33-7.838 1.041-11.806z" fill="#D10000"/><path d="M107.594 39.406a4.8 4.8 0 00-6.789 0L72.998 67.213 45.19 39.406a4.8 4.8 0 00-6.79 6.788l27.81 27.808-27.807 27.807a4.8 4.8 0 006.789 6.789L72.998 80.79l27.807 27.808a4.8 4.8 0 006.789-6.789L79.787 74.002l27.807-27.808a4.8 4.8 0 000-6.788z" fill="#FFF"/></g></svg>
